source/img/vk.svg

<svg width="23" height="13" viewBox="0 0 23 13" fill="none" xmlns="http://www.w3.org/2000/svg">
<path d="M0.0700912 1.99266C0.0700912 1.37082 0.493211 1.03552 1.33945 0.986745L4.60039 1.00503C4.81925 1.00503 4.96515 1.09648 5.03811 1.27938C5.37368 2.19385 5.74938 2.98334 6.16521 3.64785C6.58103 4.31237 7.12453 5.07747 7.79568 5.94317C7.85404 6.05291 7.94888 6.10778 8.08019 6.10778C8.18233 6.10778 8.26257 6.0651 8.32093 5.97975L8.38659 5.77857L8.40848 2.6145C8.40848 2.39503 8.34647 2.24871 8.22245 2.17556C8.09843 2.1024 7.86863 2.04753 7.53305 2.01095C7.27043 1.97437 7.13912 1.84025 7.13912 1.60859C7.13912 1.55981 7.14641 1.52323 7.161 1.49885C7.4674 0.706308 8.34282 0.310037 9.78726 0.310037L11.0129 0.291748C11.5673 0.291748 12.0269 0.407581 12.3916 0.639247C12.7564 0.870912 12.9388 1.2367 12.9388 1.73661V5.88831C13.0409 5.94927 13.1357 5.97975 13.2233 5.97975C13.4421 5.97975 13.6318 5.87002 13.7923 5.65054C15.3973 3.77283 16.2654 2.51696 16.3967 1.88293C16.3967 1.87073 16.4113 1.84025 16.4405 1.79148C16.5426 1.60859 16.7104 1.45008 16.9438 1.31595C17.1773 1.18183 17.3815 1.09039 17.5566 1.04161C17.615 1.01723 17.6806 1.00503 17.7536 1.00503H21.1459L21.3647 1.02332C21.6565 1.02332 21.8827 1.13916 22.0432 1.37082C22.1015 1.44398 22.1416 1.52323 22.1635 1.60859C22.1854 1.69394 22.2 1.77929 22.2073 1.86464C22.2146 1.94999 22.2182 1.99876 22.2182 2.01095V2.13898C22.1161 2.63889 21.8571 3.17233 21.4413 3.7393C21.0255 4.30627 20.4966 4.91897 19.8546 5.57739C19.2126 6.2358 18.8114 6.66865 18.6509 6.87593C18.5196 7.02225 18.4539 7.15637 18.4539 7.2783C18.4539 7.37584 18.5123 7.48558 18.629 7.60751L21.8243 10.9728C21.9994 11.1678 22.0869 11.3812 22.0869 11.6129C22.0869 11.8933 21.9556 12.125 21.693 12.3079C21.4304 12.4908 21.1167 12.5944 20.7519 12.6188L20.3799 12.6371H17.0533C17.0387 12.6371 17.0095 12.6401 16.9657 12.6462C16.9219 12.6523 16.8928 12.6554 16.8782 12.6554C16.5572 12.6554 16.2581 12.5396 15.9809 12.3079C15.8787 12.2103 15.193 11.491 13.9236 10.1497C13.8507 10.0644 13.7485 9.98513 13.6172 9.91197C13.5589 10.1071 13.4823 10.3875 13.3874 10.7533C13.2926 11.1191 13.2233 11.3812 13.1795 11.5397L13.1139 11.8507C12.968 12.2774 12.6616 12.5335 12.1947 12.6188L11.8883 12.6371H9.74349C8.53249 12.6371 7.32514 12.1738 6.12144 11.2471C4.91773 10.3204 3.8344 9.12248 2.87144 7.65323C1.90848 6.18398 1.01117 4.47392 0.179519 2.52306C0.106567 2.36455 0.0700912 2.18775 0.0700912 1.99266ZM13.2233 6.72962C12.9169 6.72962 12.6397 6.65951 12.3916 6.51929C12.1436 6.37907 12.0196 6.18703 12.0196 5.94317V1.73661C12.0196 1.49275 11.9466 1.319 11.8007 1.21536C11.6548 1.11172 11.3995 1.0599 11.0347 1.0599L9.78726 1.09648C9.15988 1.09648 8.68569 1.18793 8.3647 1.37082C9.00668 1.62687 9.32767 2.04143 9.32767 2.6145V5.83344C9.29849 6.13826 9.15258 6.39126 8.88996 6.59245C8.62733 6.79363 8.33552 6.89422 8.01454 6.89422C7.57683 6.89422 7.24125 6.71742 7.0078 6.36383C5.86975 4.92506 5.02351 3.55945 4.46908 2.267L4.27211 1.79148L1.36134 1.77319C1.17166 1.77319 1.06588 1.78233 1.044 1.80062C1.02211 1.81891 1.01117 1.87073 1.01117 1.95608C1.01117 2.06582 1.02576 2.18165 1.05494 2.30358L1.51454 3.32779C2.74013 5.97366 4.07149 8.05865 5.50864 9.58276C6.94579 11.1069 8.35741 11.8689 9.74349 11.8689H11.932C12.0196 11.8689 12.0852 11.8476 12.129 11.8049C12.1728 11.7623 12.2093 11.6799 12.2384 11.558L12.2822 11.3751L12.698 9.76566C12.8148 9.54619 12.9169 9.39987 13.0044 9.32671C13.1649 9.19259 13.3546 9.12553 13.5735 9.12553C13.9236 9.12553 14.2811 9.30233 14.6458 9.65592L16.5061 11.6312C16.6228 11.7897 16.7469 11.8689 16.8782 11.8689H20.4893C20.927 11.8689 21.1459 11.7775 21.1459 11.5946C21.1459 11.5336 21.124 11.4727 21.0802 11.4117L17.9068 8.10132C17.6588 7.84527 17.5347 7.57093 17.5347 7.2783C17.5347 6.98567 17.6515 6.70523 17.8849 6.43699C18.0746 6.19313 18.443 5.78771 18.9901 5.22074C19.5373 4.65377 20.0151 4.12338 20.4236 3.62956C20.8322 3.13575 21.1021 2.68766 21.2334 2.28529L21.299 2.04753C21.2845 2.02314 21.2772 1.98352 21.2772 1.92865C21.2772 1.87378 21.2699 1.82806 21.2553 1.79148H17.8193C17.6004 1.86464 17.4253 1.97437 17.294 2.12069L17.1627 2.46819C16.7979 3.3095 15.8423 4.60805 14.2957 6.36383C13.9893 6.60769 13.6318 6.72962 13.2233 6.72962Z" fill="#666666"/>
</svg>

<svg width="23" height="13" fill="none" xmlns="http://www.w3.org/2000/svg"><path d="M.07 1.993c0-.622.423-.957 1.27-1.006l3.26.018c.22 0 .365.091.438.274.336.915.711 1.704 1.127 2.369.416.664.96 1.43 1.63 2.295.059.11.154.165.285.165a.276.276 0 00.24-.128l.067-.201.021-3.164c0-.22-.062-.366-.186-.44-.124-.073-.353-.127-.689-.164-.263-.037-.394-.17-.394-.402 0-.05.007-.086.022-.11C7.467.706 8.343.31 9.787.31l1.226-.018c.554 0 1.014.116 1.379.347.364.232.547.598.547 1.098v4.151a.562.562 0 00.284.092c.22 0 .409-.11.57-.33 1.604-1.877 2.472-3.133 2.604-3.767a.29.29 0 01.044-.092c.102-.182.27-.34.503-.475.233-.134.438-.226.613-.274a.507.507 0 01.197-.037h3.392l.219.018c.292 0 .518.116.678.348a.63.63 0 01.12.238c.022.085.037.17.044.256.008.085.011.134.011.146v.128c-.102.5-.36 1.033-.777 1.6-.415.567-.944 1.18-1.586 1.838-.642.659-1.044 1.092-1.204 1.299-.131.146-.197.28-.197.402 0 .098.058.208.175.33l3.195 3.365a.939.939 0 01.263.64c0 .28-.131.512-.394.695a1.826 1.826 0 01-.941.31l-.372.02h-3.327a.794.794 0 00-.087.008.802.802 0 01-.088.01c-.32 0-.62-.116-.897-.348-.102-.098-.788-.817-2.057-2.158a1.107 1.107 0 00-.307-.238c-.058.195-.135.475-.23.841-.094.366-.164.628-.207.787l-.066.31c-.146.427-.452.684-.92.769l-.306.018H9.743c-1.21 0-2.418-.463-3.622-1.39-1.203-.927-2.287-2.125-3.25-3.594-.963-1.469-1.86-3.18-2.691-5.13a1.254 1.254 0 01-.11-.53zM13.223 6.73a1.66 1.66 0 01-.831-.21c-.248-.14-.372-.333-.372-.577V1.737c0-.244-.073-.418-.22-.522-.145-.103-.4-.155-.765-.155l-1.248.036c-.627 0-1.101.092-1.422.275.642.256.963.67.963 1.244v3.218c-.03.305-.175.558-.438.76a1.405 1.405 0 01-.875.301c-.438 0-.774-.177-1.007-.53C5.87 4.925 5.024 3.559 4.469 2.267l-.197-.476-2.91-.018c-.19 0-.296.01-.318.028-.022.018-.033.07-.033.155 0 .11.015.226.044.348l.46 1.024C2.74 5.974 4.07 8.058 5.509 9.583c1.437 1.524 2.848 2.286 4.234 2.286h2.189c.088 0 .153-.021.197-.064.044-.043.08-.125.11-.247l.043-.183.416-1.61c.117-.219.219-.365.306-.438a.86.86 0 01.57-.201c.35 0 .707.176 1.072.53l1.86 1.975c.117.159.24.238.372.238h3.611c.438 0 .657-.091.657-.274a.312.312 0 00-.066-.183l-3.173-3.31c-.248-.257-.372-.531-.372-.824 0-.292.116-.573.35-.841.19-.244.558-.65 1.105-1.216a28.203 28.203 0 001.434-1.591c.408-.494.678-.942.81-1.345l.065-.237a.243.243 0 01-.022-.12c0-.054-.007-.1-.022-.137H17.82a1.199 1.199 0 00-.525.33l-.131.347c-.365.841-1.32 2.14-2.867 3.896a1.672 1.672 0 01-1.073.366z" fill="#666"/></svg>
